src/pos-icons/content-save-edit.svg

<svg height="24" viewBox="0 0 24 24" width="24" xmlns="http://www.w3.org/2000/svg"><path d="m10 19 .14-.14c-1.24-.36-2.14-1.5-2.14-2.86a3 3 0 0 1 3-3c1.36 0 2.5.9 2.86 2.14l6.14-6.14v-2l-4-4h-12c-1.11 0-2 .9-2 2v14a2 2 0 0 0 2 2h6zm-6-14h10v4h-10zm16.04 7.13c-.14 0-.28.06-.39.17l-1 1 2.05 2.05 1-1c.22-.21.22-.56 0-.77l-1.28-1.28c-.11-.11-.24-.17-.38-.17m-1.97 1.75-6.07 6.06v2.06h2.06l6.06-6.07z"/></svg>

<?xml version="1.0" encoding="UTF-8"?><!DOCTYPE svg PUBLIC "-//W3C//DTD SVG 1.1//EN" "http://www.w3.org/Graphics/SVG/1.1/DTD/svg11.dtd"><svg xmlns="http://www.w3.org/2000/svg" xmlns:xlink="http://www.w3.org/1999/xlink" version="1.1" id="mdi-content-save-edit" width="24" height="24" viewBox="0 0 24 24"><path d="M10,19L10.14,18.86C8.9,18.5 8,17.36 8,16A3,3 0 0,1 11,13C12.36,13 13.5,13.9 13.86,15.14L20,9V7L16,3H4C2.89,3 2,3.9 2,5V19A2,2 0 0,0 4,21H10V19M4,5H14V9H4V5M20.04,12.13C19.9,12.13 19.76,12.19 19.65,12.3L18.65,13.3L20.7,15.35L21.7,14.35C21.92,14.14 21.92,13.79 21.7,13.58L20.42,12.3C20.31,12.19 20.18,12.13 20.04,12.13M18.07,13.88L12,19.94V22H14.06L20.12,15.93L18.07,13.88Z" /></svg>
